dist/assets/images/brands/brandsIco/gauge (Traced).svg

<svg width="20" height="28" viewBox="0 0 20 28" fill="none" xmlns="http://www.w3.org/2000/svg">
<path opacity="0.6" fill-rule="evenodd" clip-rule="evenodd" d="M9.50283 0.0454372C9.10628 0.166813 8.69863 0.534934 8.54137 0.913667C8.49657 1.02153 8.44395 1.36723 8.42438 1.68185L8.38878 2.25395L7.91226 2.35289C6.74275 2.59576 5.22459 3.26472 4.23181 3.97471C3.60716 4.42137 2.59976 5.38752 2.13465 5.98597C-0.356833 9.19174 -0.69854 13.6159 1.27397 17.1297C2.68146 19.637 5.05781 21.4072 7.8741 22.0463L8.41596 22.1692V22.8088V23.4484L6.74439 23.4725C5.1138 23.496 5.06205 23.5001 4.63369 23.6418C3.86858 23.8949 3.18761 24.4657 2.8166 25.165C2.65624 25.4673 2.11019 27.3536 2.11019 27.6053C2.11019 27.6747 2.17026 27.7919 2.24364 27.8657L2.37704 28H9.9855C14.1701 28 17.6335 27.9847 17.6819 27.966C17.7303 27.9473 17.8067 27.8605 17.8516 27.7732C17.9284 27.6237 17.9169 27.552 17.6595 26.5708C17.495 25.9437 17.316 25.3932 17.2108 25.1911C16.9727 24.7338 16.3141 24.0713 15.8773 23.8497C15.2388 23.5259 15.07 23.5019 13.2404 23.474L11.5688 23.4484V22.8053V22.1622L12.0445 22.0689C13.0949 21.8627 14.4573 21.3057 15.3595 20.7136C16.0104 20.2864 16.3891 19.9825 16.9427 19.443C18.6168 17.8118 19.5947 15.875 19.9408 13.5049C20.0294 12.8979 20.0163 11.4405 19.9162 10.77C19.8129 10.0789 19.5625 9.11243 19.3419 8.55352C18.8026 7.18743 17.7006 5.5189 17.3376 5.5189C17.2696 5.5189 17.1399 5.59335 17.0495 5.68436C16.8353 5.89988 16.863 6.00774 17.2717 6.54871C18.1666 7.73348 18.734 8.99543 19.0281 10.4552C19.135 10.986 19.1517 11.2328 19.1498 12.2468C19.1478 13.2573 19.1302 13.5037 19.0244 13.9972C18.4537 16.6602 16.9461 18.7919 14.6575 20.1719C13.8153 20.6799 12.867 21.0445 11.7739 21.2808C11.0062 21.4468 9.2107 21.4608 8.38878 21.3073C6.62604 20.9778 4.97834 20.1284 3.68728 18.8836C2.20597 17.4553 1.30343 15.7527 0.937589 13.6963C0.796199 12.9015 0.805548 11.4461 0.957485 10.6047C1.1902 9.31569 1.78789 7.88303 2.53126 6.83232C3.00387 6.16423 4.00801 5.15505 4.66577 4.68694C6.81609 3.15658 9.48016 2.61315 12.0063 3.18945C13.4166 3.51119 14.3545 3.96585 15.8577 5.0567C16.092 5.2267 16.2675 5.22659 16.4365 5.05642C16.731 4.76007 16.5697 4.51606 15.6711 3.89868C14.4915 3.08821 13.3555 2.61928 11.7183 2.26707L11.5688 2.23491V1.72605C11.5688 1.39458 11.5373 1.12393 11.4782 0.949549C11.3582 0.595103 10.9718 0.206306 10.6196 0.0855312C10.3457 -0.00833145 9.7486 -0.0297733 9.50283 0.0454372ZM10.5533 1.0258C10.7161 1.18962 10.7274 1.22687 10.7454 1.66369L10.7646 2.12759H10.0252H9.28572V1.67485C9.28572 1.34502 9.30975 1.18754 9.37422 1.09488C9.50745 0.903493 9.76191 0.810341 10.0913 0.83244C10.3299 0.848412 10.4106 0.882215 10.5533 1.0258ZM8.95211 4.91787C5.69638 5.43406 3.22849 7.96026 2.7586 11.2577C2.67059 11.8755 2.72484 13.1683 2.86444 13.7784C3.53268 16.6991 5.76906 18.8647 8.7169 19.4457C9.35731 19.572 10.5975 19.5747 11.273 19.4512C14.2717 18.9033 16.6059 16.5687 17.2037 13.5197C17.3431 12.809 17.3299 11.5174 17.176 10.787C16.8981 9.46874 16.3973 8.43362 15.5443 7.41437C14.5474 6.2232 13.0969 5.35787 11.4873 4.99401C11.0412 4.8932 9.41564 4.84436 8.95211 4.91787ZM11.3514 5.81848C12.4376 6.08295 13.299 6.50572 14.1648 7.19924L14.2873 7.29742L13.4564 8.13218L12.6255 8.96693L12.437 8.82483C12.0151 8.50686 11.375 8.23129 10.8078 8.12337L10.4545 8.0562L10.4273 7.20329C10.4037 6.46497 10.3862 6.335 10.2965 6.23551C10.1614 6.08547 9.86699 6.08268 9.7206 6.22998C9.62123 6.32997 9.61188 6.41229 9.61188 7.1889C9.61188 7.82209 9.59459 8.04324 9.54393 8.05719C9.50658 8.06747 9.31866 8.10548 9.12639 8.1417C8.654 8.23063 8.17623 8.43012 7.73118 8.72424L7.3611 8.96879L6.55674 8.16073C6.1143 7.71631 5.75231 7.33533 5.75231 7.31416C5.75231 7.25487 6.33446 6.82051 6.75004 6.56971C7.4228 6.16369 8.23755 5.87554 9.09546 5.74027C9.55687 5.66752 10.9264 5.71499 11.3514 5.81848ZM5.98595 8.73507L6.78902 9.54444L6.54597 9.91683C6.24862 10.3724 6.0601 10.8347 5.94687 11.3865C5.79906 12.1066 5.83722 12.3424 6.12077 12.4606C6.31728 12.5425 6.54831 12.4632 6.6205 12.2889C6.64882 12.2207 6.69796 11.9841 6.72982 11.7632C6.84278 10.9792 7.08125 10.4851 7.62692 9.90474C8.12252 9.37745 8.74022 9.03645 9.38857 8.93214L9.61188 8.89621V9.5463V10.1963L9.38085 10.2675C8.52375 10.5315 7.92764 11.4276 7.99347 12.3531C8.05033 13.1528 8.59584 13.869 9.34035 14.1216L9.5847 14.2045L9.59861 14.5521C9.61889 15.0598 9.64895 15.1438 9.83894 15.2242C10.2032 15.3783 10.3894 15.1864 10.4273 14.6176L10.4545 14.2098L10.7631 14.0838C11.5548 13.7608 12.0163 13.0638 12.0157 12.1921C12.0153 11.6468 11.8631 11.2463 11.5077 10.855C11.2569 10.5788 10.6896 10.223 10.5001 10.223C10.4433 10.223 10.4273 10.0788 10.4273 9.56659C10.4273 8.81761 10.4037 8.84479 10.9202 8.99751C12.0399 9.32865 12.9422 10.2674 13.2263 11.3968C13.3309 11.8126 13.3302 12.5569 13.2248 13.007C13.126 13.4288 12.8253 14.0216 12.549 14.339C12.3155 14.6073 12.2212 14.7707 12.2212 14.9066C12.2212 14.9594 12.688 15.4746 13.2585 16.0515L14.2958 17.1003L14.0603 17.2905C12.9079 18.2214 11.5322 18.7076 10.0489 18.7083C9.01164 18.7088 8.15128 18.5271 7.28614 18.1249C6.90372 17.9472 6.1586 17.4739 5.86544 17.2226L5.73399 17.1098L6.74879 16.0835C7.93433 14.8846 7.93123 14.8913 7.51923 14.4174C7.3848 14.2628 7.18938 13.9727 7.08501 13.7728C6.95356 13.5211 6.84783 13.3896 6.74145 13.3452C6.46758 13.2311 6.18719 13.4215 6.18719 13.7217C6.18719 13.8578 6.44704 14.3847 6.64594 14.6519L6.78717 14.8417L5.95861 15.6767L5.13005 16.5118L5.00769 16.3621C4.01214 15.1441 3.47626 13.5409 3.54073 11.9733C3.58302 10.9444 3.75687 10.247 4.20322 9.31574C4.42729 8.84829 5.04982 7.92564 5.1412 7.92564C5.16414 7.92564 5.54428 8.28987 5.98595 8.73507ZM15.1211 8.19519C16.9553 10.6153 16.9297 13.941 15.0588 16.286L14.8692 16.5236L14.0616 15.7123C13.6174 15.2661 13.254 14.8806 13.254 14.8556C13.254 14.8305 13.3241 14.7071 13.4099 14.5814C13.9106 13.8468 14.13 13.1196 14.1306 12.1921C14.1313 11.2918 13.9262 10.6073 13.4288 9.84916L13.2373 9.55735L14.0468 8.74152C14.492 8.29277 14.8699 7.92564 14.8865 7.92564C14.9032 7.92564 15.0087 8.04696 15.1211 8.19519ZM10.6213 11.1795C11.2925 11.5753 11.3908 12.5582 10.8117 13.0846C10.5454 13.3267 10.2767 13.4135 9.88232 13.3848C9.15243 13.3317 8.65362 12.6001 8.85464 11.8775C8.94059 11.5687 9.32323 11.1543 9.61188 11.0574C9.9008 10.9604 10.3398 11.0135 10.6213 11.1795ZM10.7534 22.8583V23.46H10.0196H9.28572V22.8583V22.2567H10.0196H10.7534V22.8583ZM15.3889 24.5381C15.8226 24.7447 16.2799 25.1788 16.4766 25.5705C16.5825 25.7813 16.9505 27.0075 16.9505 27.1494C16.9505 27.166 13.8316 27.1795 10.0196 27.1795C3.92962 27.1795 3.08867 27.1697 3.08867 27.0984C3.08867 26.9374 3.41885 25.7998 3.52817 25.5842C3.77557 25.0962 4.34852 24.6097 4.87761 24.4384C5.16218 24.3462 5.49508 24.3406 10.1011 24.3512L15.0207 24.3625L15.3889 24.5381Z" fill="white"/>
</svg>

<svg width="20" height="28" fill="none" xmlns="http://www.w3.org/2000/svg"><path opacity=".6" fill-rule="evenodd" clip-rule="evenodd" d="M9.503.045c-.397.122-.804.49-.962.869-.044.108-.097.453-.117.768l-.035.572-.477.099c-1.17.243-2.687.912-3.68 1.622-.625.446-1.632 1.413-2.097 2.011C-.357 9.192-.7 13.616 1.274 17.13a10.088 10.088 0 006.6 4.916l.542.123v1.28l-1.672.023c-1.63.024-1.682.028-2.11.17a3.26 3.26 0 00-1.817 1.523c-.16.302-.707 2.189-.707 2.44 0 .07.06.187.134.26l.133.135h7.609c4.184 0 7.648-.015 7.696-.034.048-.019.125-.106.17-.193.076-.15.065-.221-.192-1.202-.165-.627-.344-1.178-.45-1.38-.237-.457-.896-1.12-1.333-1.341-.638-.324-.807-.348-2.637-.376l-1.671-.026v-1.286l.475-.093c1.05-.206 2.413-.763 3.316-1.355a9.279 9.279 0 001.583-1.271c1.674-1.631 2.652-3.568 2.998-5.938.088-.607.075-2.065-.025-2.735-.103-.691-.354-1.658-.574-2.216-.54-1.367-1.641-3.035-2.004-3.035-.068 0-.198.074-.289.165-.214.216-.186.324.223.865a9.38 9.38 0 011.756 3.906c.107.531.124.778.122 1.792-.002 1.01-.02 1.257-.126 1.75-.57 2.663-2.078 4.795-4.367 6.175-.842.508-1.79.872-2.883 1.109-.768.166-2.563.18-3.385.026a9.25 9.25 0 01-4.702-2.423c-1.481-1.429-2.384-3.131-2.75-5.188-.14-.794-.131-2.25.02-3.091.233-1.29.83-2.722 1.574-3.773.473-.668 1.477-1.677 2.135-2.145 2.15-1.53 4.814-2.074 7.34-1.498 1.41.322 2.348.777 3.852 1.868.234.17.41.17.578 0 .295-.297.134-.54-.765-1.158-1.18-.81-2.316-1.28-3.953-1.632l-.15-.032v-.509c0-.331-.03-.602-.09-.776-.12-.355-.506-.744-.858-.864-.274-.094-.871-.116-1.117-.04zm1.05.98c.163.165.174.202.192.639l.02.464h-1.48v-.453c0-.33.025-.487.09-.58.132-.192.387-.285.716-.263.239.016.32.05.462.194zm-1.6 3.893c-3.257.516-5.725 3.042-6.194 6.34-.088.618-.034 1.91.105 2.52.669 2.921 2.905 5.087 5.853 5.668.64.126 1.88.129 2.556.005 2.999-.548 5.333-2.882 5.93-5.931.14-.711.127-2.003-.027-2.733-.278-1.318-.779-2.353-1.632-3.373-.997-1.19-2.447-2.056-4.057-2.42-.446-.1-2.071-.15-2.535-.076zm2.398.9A6.879 6.879 0 0114.165 7.2l.122.098-.83.835-.832.835-.188-.142c-.422-.318-1.062-.594-1.63-.702l-.353-.067-.027-.853c-.023-.738-.04-.868-.13-.967-.136-.15-.43-.153-.576-.006-.1.1-.11.182-.11.959 0 .633-.016.854-.067.868-.037.01-.225.048-.418.085a3.85 3.85 0 00-1.395.582l-.37.245-.804-.808c-.443-.445-.805-.826-.805-.847 0-.06.582-.493.998-.744.673-.406 1.488-.694 2.345-.83.462-.072 1.831-.025 2.256.078zM5.986 8.735l.803.81-.243.372a4.098 4.098 0 00-.6 1.47c-.147.72-.109.955.175 1.074.196.082.427.002.5-.172.028-.068.077-.305.109-.526.113-.784.351-1.278.897-1.858.496-.528 1.113-.869 1.762-.973l.223-.036v1.3l-.231.072c-.857.263-1.453 1.16-1.388 2.085.057.8.603 1.516 1.347 1.769l.245.082.014.348c.02.508.05.592.24.672.364.154.55-.038.588-.606l.027-.408.31-.126c.79-.323 1.252-1.02 1.252-1.892 0-.545-.153-.946-.508-1.337-.251-.276-.818-.632-1.008-.632-.057 0-.073-.144-.073-.656 0-.75-.023-.722.493-.57a3.411 3.411 0 012.306 2.4c.105.416.104 1.16-.001 1.61-.099.422-.4 1.015-.676 1.332-.233.268-.328.432-.328.568 0 .052.467.568 1.037 1.145l1.038 1.048-.236.19a6.297 6.297 0 01-4.011 1.418c-1.037 0-1.898-.18-2.763-.583-.382-.178-1.127-.651-1.42-.902l-.132-.113 1.015-1.026c1.185-1.2 1.182-1.193.77-1.667a4.016 4.016 0 01-.434-.644c-.131-.252-.237-.383-.344-.428a.394.394 0 00-.554.377c0 .136.26.663.459.93l.141.19-.828.835-.829.835-.122-.15a6.604 6.604 0 01-1.467-4.389c.042-1.029.216-1.726.662-2.657.224-.468.847-1.39.938-1.39.023 0 .403.364.845.81zm9.135-.54c1.834 2.42 1.809 5.746-.062 8.091l-.19.238-.807-.812c-.445-.446-.808-.831-.808-.856 0-.025.07-.149.156-.275.5-.734.72-1.461.72-2.389.001-.9-.204-1.585-.701-2.343l-.192-.292.81-.815c.445-.45.823-.816.84-.816.016 0 .122.121.234.27zm-4.5 2.985c.671.395.77 1.378.19 1.905-.266.242-.534.329-.929.3-.73-.053-1.228-.785-1.027-1.508.086-.308.468-.723.757-.82.289-.097.728-.043 1.01.123zm.132 11.678v.602H9.286v-1.203h1.467v.601zm4.636 1.68c.434.207.89.64 1.088 1.032.105.211.474 1.438.474 1.58 0 .016-3.12.03-6.931.03-6.09 0-6.931-.01-6.931-.082 0-.16.33-1.298.44-1.514.247-.488.82-.974 1.349-1.146.284-.092.617-.097 5.223-.087l4.92.012.368.175z" fill="#fff"/></svg>
